Obsidian-SemiLight/actions/16s/align-horizontal-bottom-out.svg

<svg viewBox="0 0 16 16" xmlns="http://www.w3.org/2000/svg"><path d="m9 2v1 6h5v-5-1-1zm1 1h3v1 4h-3v-4zm-8 1v5h5v-5zm1 1h3v3h-3zm-1 5v1h12v-1zm7 2v2h5v-2z" fill="#4d4d4d"/></svg>

<svg xmlns="http://www.w3.org/2000/svg" viewBox="0 0 16 16">
  <defs id="defs3051">
    <style type="text/css" id="current-color-scheme">
      .ColorScheme-Text {
        color:#4d4d4d;
      }
      </style>
  </defs>
 <path style="fill:currentColor;fill-opacity:1;stroke:none" 
       d="M 9 2 L 9 3 L 9 9 L 14 9 L 14 4 L 14 3 L 14 2 L 9 2 z M 10 3 L 13 3 L 13 4 L 13 8 L 10 8 L 10 4 L 10 3 z M 2 4 L 2 9 L 7 9 L 7 4 L 2 4 z M 3 5 L 6 5 L 6 8 L 3 8 L 3 5 z M 2 10 L 2 11 L 14 11 L 14 10 L 2 10 z M 9 12 L 9 14 L 14 14 L 14 12 L 9 12 z "
     class="ColorScheme-Text"
     />
</svg>
